fs/battery_10_24_filled.svg

<svg viewBox="0 0 24 24" fill="none" xmlns="http://www.w3.org/2000/svg" height="1em" width="1em">
  <path d="M17.0001 6C18.657 6 20.0001 7.34315 20.0001 9V10H21.0004C21.1825 10 21.3533 10.0487 21.5004 10.1338C21.7993 10.3067 22.0004 10.6299 22.0004 11V13C22.0004 13.3701 21.7993 13.6933 21.5004 13.8662C21.3533 13.9513 21.1825 14 21.0004 14H20.0001V15C20.0001 16.6569 18.657 18 17.0001 18H4.99976C3.34291 18 1.99976 16.6569 1.99976 15V9C1.99976 7.34315 3.34291 6 4.99976 6H17.0001ZM16.0001 9H6.00065C5.44837 9 5.00065 9.44772 5.00065 10V14C5.00065 14.5523 5.44837 15 6.00065 15H16.0001C16.5524 15 17.0001 14.5523 17.0001 14V10C17.0001 9.44772 16.5524 9 16.0001 9Z" fill="#212121"/>
</svg>

<svg viewBox="0 0 24 24" fill="none" xmlns="http://www.w3.org/2000/svg" height="1em" width="1em">
  <path d="M17 6a3 3 0 0 1 3 3v1h1a1 1 0 0 1 1 1v2a1 1 0 0 1-1 1h-1v1a3 3 0 0 1-3 3H5a3 3 0 0 1-3-3V9a3 3 0 0 1 3-3h12Zm-1 3H6a1 1 0 0 0-1 1v4a1 1 0 0 0 1 1h10a1 1 0 0 0 1-1v-4a1 1 0 0 0-1-1Z" fill="#212121"/>
</svg>
